shader_type canvas_item;

void fragment() {
	//if(COLOR.r > COLOR.g  &&  COLOR.)
	
	
	//COLOR = vec4(COLOR.r+delta_avg.r, COLOR.g+delta_avg.g, COLOR.b+delta_avg.b, COLOR.a);
	
	
	
	//COLOR.r += 
	
	//COLOR.r = 1.0-COLOR.r;
	//COLOR.g = 1.0-COLOR.g;
	//COLOR.b = 1.0-COLOR.b;
	
}
